packages/core/src/svgs/pop.svg

<svg width="24" height="24" viewBox="0 0 24 24" fill="none" xmlns="http://www.w3.org/2000/svg">
<g clip-path="url(#clip0_31_16345)">
<path d="M0 0H24V24H0V0Z" fill="#F0F3FA"/>
<path d="M6.42847 13.7141H18.4285V8.57129H20.5713V15.4284H6.42847V13.7141ZM5.57132 15.4284H3.42847V8.57129H17.5713V10.2856H5.57132V15.4284ZM17.5713 12.857V11.1427H6.42847V12.857H17.5713Z" fill="url(#paint0_linear_31_16345)"/>
</g>
<defs>
<linearGradient id="paint0_linear_31_16345" x1="12.4285" y1="7.71415" x2="9.85704" y2="15.4284" gradientUnits="userSpaceOnUse">
<stop stop-color="#00BAC9"/>
<stop offset="0.12" stop-color="#2060B2"/>
<stop offset="0.18" stop-color="#7046B2"/>
<stop offset="0.24" stop-color="#CC83A1"/>
<stop offset="0.3" stop-color="#663FA9"/>
<stop offset="0.37" stop-color="#3557B8"/>
<stop offset="0.45" stop-color="#8851B7"/>
<stop offset="0.56" stop-color="#E096AC"/>
<stop offset="0.75" stop-color="#7443B7"/>
<stop offset="0.91" stop-color="#8F48A9"/>
<stop offset="1" stop-color="#C379AD"/>
</linearGradient>
<clipPath id="clip0_31_16345">
<rect width="24" height="24" fill="white"/>
</clipPath>
</defs>
</svg>

<svg xmlns="http://www.w3.org/2000/svg" width="24" height="24" fill="none" viewBox="0 0 24 24"><g clip-path="url(#a)"><path fill="#F0F3FA" d="M0 0h24v24H0z"/><path fill="url(#b)" d="M6.428 13.714h12V8.571h2.143v6.857H6.428zm-.857 1.714H3.428V8.571h14.143v1.715h-12zm12-2.571v-1.714H6.428v1.714z"/></g><defs><linearGradient id="b" x1="12.428" x2="9.857" y1="7.714" y2="15.428" gradientUnits="userSpaceOnUse"><stop stop-color="#00BAC9"/><stop offset=".12" stop-color="#2060B2"/><stop offset=".18" stop-color="#7046B2"/><stop offset=".24" stop-color="#CC83A1"/><stop offset=".3" stop-color="#663FA9"/><stop offset=".37" stop-color="#3557B8"/><stop offset=".45" stop-color="#8851B7"/><stop offset=".56" stop-color="#E096AC"/><stop offset=".75" stop-color="#7443B7"/><stop offset=".91" stop-color="#8F48A9"/><stop offset="1" stop-color="#C379AD"/></linearGradient><clipPath id="a"><path fill="#fff" d="M0 0h24v24H0z"/></clipPath></defs></svg>
